img/svg/mailing-icons/box-ico.svg

<svg width="22" height="22" viewBox="0 0 22 22" fill="none" xmlns="http://www.w3.org/2000/svg">
<g clip-path="url(#clip0)">
<path d="M19.4591 8.372C19.459 8.37066 19.4588 8.36915 19.4586 8.36781L21.8112 5.4362C21.9913 5.21163 22.047 4.91185 21.9597 4.63742C21.8723 4.36316 21.6532 4.15084 21.3763 4.07195L18.0677 3.12933C17.6113 2.99924 17.1358 3.26394 17.0057 3.72031C16.8757 4.17685 17.1404 4.65219 17.5967 4.78227L19.6604 5.37024L17.6828 7.83439L11.1771 9.6906C11.1179 9.69312 11.0588 9.70218 11.0005 9.71729C10.9428 9.70235 10.8842 9.69312 10.8253 9.69043L4.30582 7.81996L2.34018 5.37024L4.40368 4.78227C4.86005 4.65236 5.12474 4.17685 4.99466 3.72048C4.86458 3.26394 4.38907 2.99941 3.9327 3.12933L0.624116 4.07195C0.347337 4.15084 0.128298 4.36316 0.0408502 4.63759C-0.0465977 4.91185 0.00912727 5.21179 0.189394 5.43637L2.56224 8.39332L0.175631 11.5327C0.00694526 11.7546 -0.0437443 12.0445 0.0398431 12.3103C0.123431 12.5762 0.330721 12.7852 0.596086 12.8706L2.57835 13.5096V17.2402C2.57835 18.7674 3.60406 20.1266 5.07271 20.5457L9.32996 21.7603C9.88906 21.9199 10.4641 21.9996 11.039 21.9996C11.6172 21.9996 12.1953 21.9189 12.7572 21.7577L16.9757 20.5472C18.4415 20.1266 19.465 18.7679 19.465 17.243C19.465 16.7685 19.0803 16.3838 18.6056 16.3838C18.131 16.3838 17.7463 16.7685 17.7463 17.243C17.7463 18.0055 17.2345 18.685 16.5015 18.8951L12.2831 20.1056C12.1432 20.1457 12.0017 20.1785 11.8596 20.2048V12.9067L13.2686 14.8551C13.4335 15.0828 13.6945 15.2109 13.9652 15.2109C14.0525 15.2109 14.1409 15.1976 14.2272 15.1699L21.403 12.8711C21.6677 12.7864 21.875 12.5787 21.9594 12.3142C22.044 12.0495 21.9953 11.7601 21.8288 11.5377L19.4591 8.372ZM3.88873 9.48835L9.34776 11.0547L7.66661 13.3436L2.27807 11.6069L3.88873 9.48835ZM5.54436 18.8929C4.81003 18.6833 4.29709 18.0037 4.29709 17.2402V14.0635L7.72888 15.1694C7.81566 15.1975 7.90445 15.2111 7.9924 15.2111C8.26078 15.2111 8.52011 15.0848 8.6851 14.8603L10.1408 12.8782V20.1897C10.027 20.1666 9.91373 20.1395 9.80144 20.1075L5.54436 18.8929ZM14.2964 13.3429L12.6448 11.0592L18.1483 9.48902L19.7302 11.6022L14.2964 13.3429ZM10.1408 7.56248V0.859373C10.1408 0.384704 10.5257 0 11.0002 0C11.4749 0 11.8596 0.384704 11.8596 0.859373V7.56248C11.8596 8.03715 11.4749 8.42185 11.0002 8.42185C10.5257 8.42185 10.1408 8.03715 10.1408 7.56248ZM13.5783 6.70311V0.859373C13.5783 0.384704 13.963 0 14.4377 0C14.9124 0 15.2971 0.384704 15.2971 0.859373V6.70311C15.2971 7.17778 14.9124 7.56248 14.4377 7.56248C13.963 7.56248 13.5783 7.17778 13.5783 6.70311ZM6.70334 6.70311V0.859373C6.70334 0.384704 7.08821 0 7.56271 0C8.03738 0 8.42208 0.384704 8.42208 0.859373V6.70311C8.42208 7.17778 8.03738 7.56248 7.56271 7.56248C7.08821 7.56248 6.70334 7.17778 6.70334 6.70311Z" fill="#4C51CC"/>
</g>
<defs>
<clipPath id="clip0">
<rect width="22" height="22" fill="white"/>
</clipPath>
</defs>
</svg>

<svg width="22" height="22" fill="none" xmlns="http://www.w3.org/2000/svg"><g clip-path="url(#clip0)"><path d="M19.46 8.372a.06.06 0 00-.001-.004l2.352-2.932a.86.86 0 00-.435-1.364l-3.308-.943a.86.86 0 00-.471 1.653l2.063.588-1.977 2.464-6.506 1.857a.847.847 0 00-.176.026.854.854 0 00-.176-.027l-6.52-1.87L2.34 5.37l2.064-.588a.86.86 0 10-.471-1.653l-3.309.943A.86.86 0 00.19 5.436l2.373 2.957-2.386 3.14a.86.86 0 00.42 1.338l1.982.639v3.73a3.452 3.452 0 002.495 3.306L9.33 21.76a6.225 6.225 0 003.427-.002l4.219-1.21a3.453 3.453 0 002.489-3.305.86.86 0 00-1.719 0c0 .763-.511 1.442-1.244 1.652l-4.219 1.21c-.14.04-.281.073-.423.1v-7.298l1.409 1.948a.86.86 0 00.958.315l7.176-2.299a.859.859 0 00.426-1.333l-2.37-3.166zM3.888 9.488l5.459 1.567-1.681 2.289-5.389-1.737 1.61-2.119zm1.655 9.405a1.726 1.726 0 01-1.247-1.653v-3.176l3.432 1.105a.854.854 0 00.956-.309l1.456-1.982v7.312a4.515 4.515 0 01-.34-.082l-4.257-1.215zm8.752-5.55l-1.651-2.284 5.503-1.57 1.582 2.113-5.434 1.74zm-4.155-5.78V.858a.86.86 0 011.719 0v6.703a.86.86 0 11-1.72 0zm3.437-.86V.86a.86.86 0 111.72 0v5.844a.86.86 0 11-1.72 0zm-6.875 0V.86a.86.86 0 011.72 0v5.844a.86.86 0 11-1.72 0z" fill="#4C51CC"/></g><defs><clipPath id="clip0"><path fill="#fff" d="M0 0h22v22H0z"/></clipPath></defs></svg>
